// =====================================================================
// SuperCollider Workspace
// =====================================================================


(
Pdef(\metro,
	Pbind(\degree, -2).midi(5,0)
);
)
